dist/assets/img/phone.svg

<svg width="17" height="17" viewBox="0 0 17 17" fill="none" xmlns="http://www.w3.org/2000/svg">
<g clip-path="url(#clip0_0_314)">
<path d="M15.6359 11.1586C14.5951 11.1586 13.5732 10.9958 12.6047 10.6757C12.1219 10.5111 11.5722 10.6389 11.2572 10.9598L9.34575 12.4028C7.12898 11.2195 5.76349 9.85442 4.59633 7.65429L5.99684 5.79262C6.3607 5.42924 6.49121 4.89844 6.33485 4.40039C6.01344 3.42687 5.85017 2.40541 5.85017 1.36416C5.85021 0.611956 5.23826 0 4.4861 0H1.36407C0.611956 0 0 0.611956 0 1.36407C0 9.98586 7.01418 17 15.6359 17C16.3881 17 17 16.388 17 15.6359V12.5226C17 11.7705 16.388 11.1586 15.6359 11.1586ZM16.0556 15.6359C16.0556 15.8674 15.8674 16.0556 15.6359 16.0556C7.53481 16.0556 0.944474 9.46519 0.944474 1.36412C0.944474 1.13262 1.13263 0.944474 1.36412 0.944474H4.48614C4.71763 0.944474 4.90578 1.13262 4.90578 1.36412C4.90578 2.50639 5.08517 3.62746 5.4361 4.68952C5.48498 4.84633 5.44531 5.00862 5.28669 5.17376L3.66341 7.32359C3.55459 7.46791 3.53751 7.66116 3.61914 7.82208C4.94403 10.4262 6.55394 12.0361 9.1765 13.3799C9.33606 13.4634 9.5316 13.4459 9.67641 13.3366L11.8757 11.6705C11.9868 11.5593 12.1533 11.5197 12.3036 11.5708C13.373 11.9241 14.4941 12.103 15.6359 12.103C15.8674 12.103 16.0556 12.2912 16.0556 12.5227V15.6359Z" fill="#161616"/>
</g>
<defs>
<clipPath id="clip0_0_314">
<rect width="17" height="17" fill="white"/>
</clipPath>
</defs>
</svg>

<svg width="17" height="17" fill="none" xmlns="http://www.w3.org/2000/svg"><g clip-path="url(#clip0_0_314)"><path d="M15.636 11.159a9.65 9.65 0 01-3.031-.483c-.483-.165-1.033-.037-1.348.284l-1.911 1.443c-2.217-1.184-3.583-2.549-4.75-4.749l1.4-1.861c.365-.364.495-.895.339-1.393a9.667 9.667 0 01-.485-3.036C5.85.612 5.238 0 4.486 0H1.364C.612 0 0 .612 0 1.364 0 9.986 7.014 17 15.636 17c.752 0 1.364-.612 1.364-1.364v-3.113c0-.752-.612-1.364-1.364-1.364zm.42 4.477a.42.42 0 01-.42.42C7.535 16.056.944 9.466.944 1.364a.42.42 0 01.42-.42h3.122a.42.42 0 01.42.42c0 1.142.18 2.263.53 3.326.049.156.01.319-.15.484l-1.623 2.15a.473.473 0 00-.044.498c1.325 2.604 2.935 4.214 5.558 5.558a.47.47 0 00.5-.043l2.199-1.666a.417.417 0 01.428-.1c1.069.353 2.19.532 3.332.532a.42.42 0 01.42.42v3.113z" fill="#161616"/></g><defs><clipPath id="clip0_0_314"><path fill="#fff" d="M0 0h17v17H0z"/></clipPath></defs></svg>
